packages/ui-solid/icons/attach_24.svg

<svg width="24" height="24" viewBox="0 0 24 24" fill="none" xmlns="http://www.w3.org/2000/svg">
<path fill-rule="evenodd" clip-rule="evenodd" d="M17.3649 5.54424C15.3725 3.58157 12.098 3.58157 10.1055 5.54424L5.50681 10.0742C5.15271 10.4231 4.58287 10.4188 4.23406 10.0647C3.88524 9.71055 3.88953 9.14072 4.24364 8.7919L8.84235 4.2619C11.5355 1.60902 15.935 1.60902 18.6281 4.2619C21.2784 6.87264 21.2784 11.0748 18.6281 13.6855L12.3149 19.9044C10.2726 21.9162 6.93892 21.9162 4.89657 19.9044L5.52816 19.2632L4.89657 19.9044C2.88303 17.9209 2.88303 14.7257 4.89657 12.7422L11.2383 6.49527C12.6181 5.13608 14.8445 5.07396 16.3016 6.3498C17.903 7.75204 17.9373 10.1939 16.3733 11.6383L11.0816 16.5251C10.7164 16.8623 10.147 16.8397 9.80982 16.4745C9.4726 16.1094 9.49524 15.54 9.86041 15.2028L15.1521 10.3159C15.9293 9.5982 15.9138 8.40281 15.1158 7.70403C14.3659 7.04739 13.2078 7.08184 12.5014 7.7776L6.15975 14.0245C4.86197 15.3029 4.86197 17.3436 6.15975 18.622C7.50141 19.9436 9.71008 19.9436 11.0517 18.622L17.3649 12.4032C19.2995 10.4975 19.2995 7.4499 17.3649 5.54424Z" fill="#007AFF"/>
</svg>

<svg xmlns="http://www.w3.org/2000/svg" width="24" height="24" fill="none"><path fill="currentColor" fill-rule="evenodd" d="M17.365 5.544c-1.992-1.962-5.267-1.962-7.26 0l-4.598 4.53a.9.9 0 1 1-1.263-1.282l4.598-4.53c2.694-2.653 7.093-2.653 9.786 0a6.58 6.58 0 0 1 0 9.424l-6.313 6.218c-2.042 2.012-5.376 2.012-7.418 0l.631-.64-.631.64a5 5 0 0 1 0-7.162l6.341-6.247a3.74 3.74 0 0 1 5.064-.145 3.54 3.54 0 0 1 .071 5.288l-5.291 4.887a.9.9 0 0 1-1.222-1.322l5.292-4.887a1.74 1.74 0 0 0-.036-2.612 1.94 1.94 0 0 0-2.615.074L6.16 14.025a3.2 3.2 0 0 0 0 4.597c1.341 1.322 3.55 1.322 4.892 0l6.313-6.219a4.78 4.78 0 0 0 0-6.859" clip-rule="evenodd"/></svg>
